img/svg/logo_big.svg

<svg width="585" height="509" viewBox="0 0 585 509" fill="none" xmlns="http://www.w3.org/2000/svg">
<path opacity="0.0684524" fill-rule="evenodd" clip-rule="evenodd" d="M460.765 414.655C441.884 428.701 414.289 435.715 377.98 435.715H247.265V275.233H377.98C452.051 275.233 489.087 301.37 489.087 353.655C489.087 380.282 479.646 400.622 460.765 414.655ZM550.087 0H154.313V508.334H383.063C447.44 508.334 497.075 494.661 531.932 467.307C566.789 439.96 584.218 401.112 584.218 350.757C584.218 302.822 568.354 266.152 536.649 240.736C504.939 215.313 458.587 202.607 397.587 202.607H247.265V77.7025H480.717L550.087 0ZM0.665986 1.96072V71.5323H69.7535L69.7597 1.96072H0.665986ZM0.664124 220.235H69.7578V150.663H0.664124V220.235ZM0.664745 359.997V290.432H69.7585L69.7523 359.997H0.664745ZM0 502.537H69.0875V432.965H0V502.537Z" fill="white"/>
</svg>

<svg width="585" height="509" fill="none" xmlns="http://www.w3.org/2000/svg"><path opacity=".068" fill-rule="evenodd" clip-rule="evenodd" d="M460.765 414.655c-18.881 14.046-46.476 21.06-82.785 21.06H247.265V275.233H377.98c74.071 0 111.107 26.137 111.107 78.422 0 26.627-9.441 46.967-28.322 61zM550.087 0H154.313v508.334h228.75c64.377 0 114.012-13.673 148.869-41.027 34.857-27.347 52.286-66.195 52.286-116.55 0-47.935-15.864-84.605-47.569-110.021-31.71-25.423-78.062-38.129-139.062-38.129H247.265V77.703h233.452L550.087 0zM.666 1.96v69.572h69.088l.006-69.571H.666zM.664 220.236h69.094v-69.572H.664v69.572zm0 139.762v-69.565h69.094l-.006 69.565H.665zM0 502.537h69.088v-69.572H0v69.572z" fill="#fff"/></svg>
